svg/uf012c-strength.svg

<svg height="960" style="" width="950" xmlns="http://www.w3.org/2000/svg"><path d="m120.19425 0v247.80405h139.05406v-247.80405zm182.12837 0v247.80405h139.10476v-247.80405zm194.08785 0v247.80405h139.05405v-247.80405zm194.08784 0v247.80405h139.05406v-247.80405zm-570.30406 322.75338v157.50001 227.53378h159.83108 22.29729 388.17569 139.05406v-152.53378-232.50001h-139.05406v232.50001h-388.17569v-75h333.1419v-157.50001h-333.1419zm9.57771 460.28717v176.95945h700.03379v-176.95945z" style="stroke-width:25.9459"/></svg>

<svg xmlns="http://www.w3.org/2000/svg" width="950" height="960">
    <path d="M120.194 0v247.804h139.054V0zm182.129 0v247.804h139.104V0zM496.41 0v247.804h139.055V0zm194.088 0v247.804h139.054V0zM120.194 322.753v385.034h709.358V322.753H690.498v232.5H302.323v-75h333.142v-157.5H302.323zm9.578 460.288V960h700.034V783.04z" style="stroke-width:25.9459"/>
</svg>
